d1 $ rarely (|+ note "[3|-2|-1|-3]") $ sometimes (struct "t*16") $ s "bd*8" # legato 0.5 # room 0.2 # lpf 200 # lpq 0.2
d2 $ sometimes (jux rev) $ s "drum*16" # gain ((rand/2)+0.5) # squiz (irand 8) # room 0.2
d3 $ off 0.25 (struct "t*16")
    $ off 0.25 (|+ note "[5|7|15]") $ sometimes (# room 0.3)
    $ sometimes (rand <~) $ legato "1*16 0.5*8 0.01*3 [~ 1*4]" # s "arpy" # note "-12"
